X: 16806
T: Harry Bradley's
R: reel
M: 4/4
K: Dmajor
dcAF GFEF|GBAF G2 AB|=c2 Bd cA G2|Adde fded|
dcAF GFEF|GBAF G2 AB|=c2 ed cAGB|ABcA d3 A|
cdef g2 ge|a2 af gfed|cdef g2 fg|afge dcAB|
=cdef g2 ge|a2 af g2 ed|cdef g2 fg|afge defe|

